X:1
T:Proclaim the Tidings
T:Proclaim the Tidings
T:James Henry Fillmore
T:Fronia Smith, 1890
T:Public Domain Courtesy of the Cyber Hymnal™
C:James Henry Fillmore
Z:Public Domain
Z:Courtesy of the Cyber Hymnal™
%%score ( 1 2 ) ( 3 4 )
L:1/8
Q:1/4=113
M:4/4
K:Bb
V:1 treble 
V:2 treble 
V:3 bass 
V:4 bass 
V:1
 [DF]2 | [DB]2 [EA]2 [FB]2 [EG]2 | F2 [EF]2 [DF]2 [DF]2 | [EF]2 [FG]2 [Ee]2 [Fd]2 | %4
w: 1.~Pro-|claim the tid- ings|near and far, Go|tell the bless- èd|
w: 2.~The|Lord is ris- en,|Oh, re- joice Ye|hearts grown sad and|
w: 3.~Death|has no sting for|those who love This|ris- en Lord to|
 [Gc]4 !fermata![Fc]2 [Fc]2 | [Fd]2 (cd) [Fe]2 [Fd]2 | [Ec]2 [DB]2 [^FA]2 G2 | %7
w: sto- ry; The|grave has * giv- en|up its dead— The|
w: wear- y; Let|songs of * glad- ness|swell each voice That|
w: fol- low; A-|cross their * hearts the|gloom- y grave Throws|
 [CF]2 [DF]2 [EF]2 [DB]2 | [Ec]4 !fermata![DB]2 ||"^Refrain" F2 | B4 B4 | [Fc]4 [Fc]4 | %12
w: Lord of life and|glo- ry.||||
w: bears that won- drous|stor- y.|Sing|glo- ry,|glo- ry,|
w: not its gloom- y|sha- dow.||||
 [Fd]2 [Fe]2 [Fd]2 [Gc]2 | [FB]4 [FA]2 [EF]2 | B4 B4 | [Fc]4 [Fc]4 | [Fd]2 [Fe]2 [Fd]2 [Gc]2 | %17
w: |||||
w: Glo- ry hal- le-|lu- jah, Sing|glo- ry,|glo- ry,|Glo- ry hal- le-|
w: |||||
 (B2 A2) !fermata![FB]2 |] %18
w: |
w: lu- * jah.|
w: |
V:2
 x2 | x8 | (CD) x6 | x8 | x8 | x2 F2 x4 | x6 G2 | x8 | x6 || F2 | (D2 E2) (F2 D2) | x8 | x8 | x8 | %14
 (D2 E2) (F2 D2) | x8 | x8 | F4 x2 |] %18
V:3
 [B,,F,]2 | [B,,F,]2 [C,F,]2 [D,B,]2 [E,B,]2 | (A,B,) [F,B,]2 [B,,B,]2 [B,,B,]2 | %3
w: ~|~ ~ ~ ~|~ * ~ ~ ~|
 [E,B,]2 [D,=B,]2 [C,C]2 [D,B,]2 | ([E,C]2 [=E,B,]2) !fermata![F,A,]2 [F,A,]2 | %5
w: ~ ~ ~ ~|~ * ~ ~|
 [F,B,]2 (A,B,) [F,C]2 [F,B,]2 | [F,A,]2 [G,B,]2 [D,C]2 [E,B,]2 | [F,A,]2 [F,B,]2 [F,C]2 [F,B,]2 | %8
w: ~ ~ * ~ ~|~ ~ ~ ~|~ ~ ~ ~|
 (A,2 G,A,) !fermata![B,,F,]2 || F,2 | [B,,F,]2 [C,F,]2 [D,B,]2 [B,,F,]2 | %11
w: ~ * * ~|Sing|glo- ry, glo- ry,|
 [F,A,]2 [G,B,]2 [A,C]2 [F,A,]2 | B,2 [A,C]2 [B,D]2 [E,E]2 | [F,D]4 [F,C]2 [F,A,]2 | %14
w: glo- ry, glo- ry,|~ ~ ~ ~|~ ~ Sing|
 [B,,F,]2 [C,F,]2 [D,B,]2 [B,,F,]2 | [F,A,]2 [G,B,]2 [A,C]2 [F,A,]2 | B,2 [A,C]2 [B,D]2 [E,E]2 | %17
w: glo- ry, glo- ry,|glo- ry, glo- ry,||
 (D2 C2) !fermata![B,,D]2 |] %18
w: |
V:4
 x2 | x8 | F,2 x6 | x8 | x8 | x2 F,2 x4 | x8 | x8 | F,4 x2 || F,2 | x8 | x8 | B,2 x6 | x8 | x8 | %15
 x8 | B,2 x6 | F,4 x2 |] %18

